X:89
T:Hey burdy croon
Z:Jack Campin - http://www.campin.me.uk
S:Blaikie MS (NLS MS.1578) p26, Blaikie #83
M:2/4
L:1/8
V:1 midi program 1 74
V:2 midi program 1 46 bass middle = d transpose -24
Q:1/4=100
K:G
[V:1] GA|B2 AA|G2  Bd   |e2 {e}dB |A2 Bd|
[V:2] z2|G2 d2|g2  G2   |g2    G2 |d2 G2|
%
[V:1]    ee`dB|G<G GG/A/|Bd    A>B|G2  |]
[V:2]    c2 BG|g2  g2   |g2    d2 |G2  |]
W:Transcription (c) Jack Campin 2009, no mirroring or republication without permission

